X: 2
T: Her Mantle So Green
R: waltz
M: 3/4
L: 1/8
K: Amin
|: cB | A2 A2 BA | G2 E2 Ec | d2 dB cd | e2 e2 eg |a2 g2 ga | ef/e/ d2 ed | c2 A2 AG/E/ | G2 G2 cB |A2 AB/c/ BA | G2 E2 Ec | d2 dB cd | e2 e2 eg |ab/a/ g2 ga | ef/e/ d2 ed | c2 A2 A2 | A2 A2 eg |a2 a2 ba | g2 e2 eg | a2 a2 ge | g2 g2 c'b |ab/a/ g2 ga | ef/e/ d2 ed | c2 A2 AG/E/ | G2 G2 cB |A2 AB/c/ BA | G2 E2 Ec | d2 dB cd | e2 e2 eg |ab/a/ g2 ga | ef/e/ d2 ed | c2 A2 A2 | A2 A2 :|


Tune 2888	Setting 2888

